svg/nature/cat_line.svg

<?xml version="1.0" encoding="UTF-8"?>
<svg width="24px" height="24px" viewBox="0 0 24 24" version="1.1" xmlns="http://www.w3.org/2000/svg" xmlns:xlink="http://www.w3.org/1999/xlink">
    <title>cat_line</title>
    <g id="Icon" stroke="none" stroke-width="1" fill="none" fill-rule="evenodd">
        <g id="Nature" transform="translate(-48.000000, -96.000000)" fill-rule="nonzero">
            <g id="cat_line" transform="translate(48.000000, 96.000000)">
                <path d="M24,0 L24,24 L0,24 L0,0 L24,0 Z M12.5935,23.2578 L12.5819,23.2595 L12.5109,23.295 L12.4919,23.2987 L12.4767,23.295 L12.4057,23.2595 C12.3958,23.2564 12.387,23.259 12.3821,23.2649 L12.378,23.2758 L12.3609,23.7031 L12.3659,23.7235 L12.3769,23.7357 L12.4805,23.8097 L12.4953,23.8136 L12.5071,23.8097 L12.6107,23.7357 L12.6233,23.7197 L12.6267,23.7031 L12.6096,23.2758 C12.6076,23.2657 12.601,23.2593 12.5935,23.2578 Z M12.8584,23.1453 L12.8445,23.1473 L12.6598,23.2397 L12.6499,23.2499 L12.6472,23.2611 L12.6651,23.6906 L12.6699,23.7034 L12.6784,23.7105 L12.8793,23.8032 C12.8914,23.8069 12.9022,23.803 12.9078,23.7952 L12.9118,23.7812 L12.8777,23.1665 C12.8753,23.1546 12.8674,23.147 12.8584,23.1453 Z M12.143,23.1473 C12.1332,23.1424 12.1222,23.1453 12.1156,23.1526 L12.1099,23.1665 L12.0758,23.7812 C12.0751,23.7927 12.0828,23.8019 12.0926,23.8046 L12.1083,23.8032 L12.3092,23.7105 L12.3186,23.7024 L12.3225,23.6906 L12.3404,23.2611 L12.3372,23.2485 L12.3278,23.2397 L12.143,23.1473 Z" id="MingCute"></path>
                <path d="M18.2955,3.0447 C18.6105222,3.14214889 18.8545914,3.38748519 18.9529793,3.69687855 L18.9829,3.81574 L20.3243,10.9699 C20.42734,11.51942 20.47502,12.064588 20.4717432,12.6001815 L20.4598,12.9999999 L21,12.9999999 C21.5523,12.9999999 22,13.4477 22,13.9999999 C22,14.51285 21.613973,14.9355091 21.1166239,14.9932724 L21,14.9999999 L20.1056,14.9999999 C19.9973,15.354 19.8662187,15.6989437 19.7139172,16.0328906 L19.5546,16.3631 L20.6247,17.2192 C21.056,17.5642 21.1259,18.1935 20.7809,18.6247 C20.4624385,19.0228231 19.9017331,19.1130077 19.478126,18.8531746 L19.3753,18.7809 L18.4393,18.0321 C16.899,19.8355 14.6071,20.9999999 12,20.9999999 C9.4971456,20.9999999 7.28485325,19.9267968 5.74912441,18.2454076 L5.56071,18.0321 L4.6247,18.7809 C4.19343,19.1259 3.56414,19.056 3.21913,18.6247 C2.90065923,18.2266692 2.93573828,17.6598432 3.28221717,17.3036426 L3.3753,17.2192 L4.44535,16.3631 C4.2790825,16.0367 4.133515,15.6986562 4.01022953,15.3509093 L3.89443,14.9999999 L3,14.9999999 C2.44772,14.9999999 2,14.5523 2,13.9999999 C2,13.48715 2.38604429,13.0644907 2.88337975,13.0067274 L3,12.9999999 L3.54021,12.9999999 C3.511682,12.46952 3.5330932,11.92816 3.6087444,11.3811424 L3.67572,10.9699 L5.01713,3.81574 C5.08549,3.45113 5.35007,3.15433 5.70446,3.0447 C6.01946444,2.94724222 6.35942099,3.01190988 6.61530664,3.21171235 L6.70711,3.29292 L9.12132,5.70713 C9.27760333,5.86341333 9.4802825,5.96262722 9.69698481,5.99135731 L9.82843,6.00003 L14.1716,6.00003 C14.3926,6.00003 14.6060306,5.92686333 14.7796,5.79394435 L14.8787,5.70713 L17.2929,3.29292 C17.5552,3.03061 17.9412,2.93506 18.2955,3.0447 Z M17.3665,6.04772 L16.2929,7.12135 C15.7303,7.68396 14.9672,8.00003 14.1716,8.00003 L9.82843,8.00003 C9.03278,8.00003 8.26972,7.68396 7.70711,7.12135 L6.63348,6.04772 L5.64147,11.3385 C5.53589,11.9015 5.50634,12.4586 5.54488,13 L7,13 C7.55228,13 8,13.4477 8,14 C8,14.5523 7.55228,15 7,15 L6.50795,15 C6.79837,15.0025 7.08529,15.1309 7.28087,15.3753 C7.59934077,15.7734231 7.56426172,16.3402562 7.21777496,16.6964574 L7.1235,16.7818 C8.29951,18.1315 10.0322,19 12,19 C13.86941,19 15.5266423,18.2161787 16.695965,16.9805976 L16.8753,16.7809 C16.444,16.4359 16.3741,15.8066 16.7191,15.3753 C16.9147,15.1309 17.2016,15.0025 17.492,15 L17,15 C16.4477,15 16,14.5523 16,14 C16,13.4477 16.4477,13 17,13 L18.4551,13 C18.4937,12.4586 18.4641,11.9015 18.3585,11.3385 L17.3665,6.04772 Z M13.8944,15.0528 C14.1414,15.5468 13.9412,16.1475 13.4472,16.3945 L12.8944,16.6708 C12.3314,16.9524 11.6686,16.9524 11.1056,16.6708 L10.5528,16.3945 C10.0588,16.1475 9.85858,15.5468 10.1056,15.0528 C10.3526,14.5588 10.9532,14.3586 11.4472,14.6056 L12,14.882 L12.5528,14.6056 C13.0468,14.3586 13.6474,14.5588 13.8944,15.0528 Z M9.5,10 C10.3284,10 11,10.6716 11,11.5 C11,12.3285 10.3284,13 9.5,13 C8.67157,13 8,12.3285 8,11.5 C8,10.6716 8.67157,10 9.5,10 Z M14.5,10 C15.3284,10 16,10.6716 16,11.5 C16,12.3285 15.3284,13 14.5,13 C13.6716,13 13,12.3285 13,11.5 C13,10.6716 13.6716,10 14.5,10 Z" id="形状" fill="#09244B"></path>
            </g>
        </g>
    </g>
</svg>

<svg xmlns="http://www.w3.org/2000/svg" width="24" height="24"><g fill="none" fill-rule="nonzero"><path d="M24 0v24H0V0h24ZM12.594 23.258l-.012.002-.071.035-.02.004-.014-.004-.071-.036c-.01-.003-.019 0-.024.006l-.004.01-.017.428.005.02.01.013.104.074.015.004.012-.004.104-.074.012-.016.004-.017-.017-.427c-.002-.01-.009-.017-.016-.018Zm.264-.113-.014.002-.184.093-.01.01-.003.011.018.43.005.012.008.008.201.092c.012.004.023 0 .029-.008l.004-.014-.034-.614c-.003-.012-.01-.02-.02-.022Zm-.715.002a.023.023 0 0 0-.027.006l-.006.014-.034.614c0 .012.007.02.017.024l.015-.002.201-.093.01-.008.003-.011.018-.43-.003-.012-.01-.01-.184-.092Z"/><path fill="#09244B" d="M18.296 3.045a1 1 0 0 1 .657.652l.03.119 1.341 7.154c.103.55.151 1.095.148 1.63l-.012.4H21a1 1 0 0 1 .117 1.993L21 15h-.894c-.109.354-.24.699-.392 1.033l-.16.33 1.07.856a1 1 0 0 1-1.146 1.634l-.103-.072-.936-.749A8.427 8.427 0 0 1 12 21a8.423 8.423 0 0 1-6.25-2.755l-.19-.213-.935.749a1 1 0 0 1-1.343-1.477l.093-.085 1.07-.856a8.453 8.453 0 0 1-.435-1.012L3.894 15H3a1 1 0 0 1-.117-1.993L3 13h.54a8.483 8.483 0 0 1 .069-1.619l.067-.411 1.341-7.154a1 1 0 0 1 1.598-.604l.092.08 2.414 2.415a1 1 0 0 0 .576.284L9.828 6h4.344a1 1 0 0 0 .608-.206l.099-.087 2.414-2.414a1 1 0 0 1 1.003-.248Zm-.93 3.003L16.293 7.12A3 3 0 0 1 14.172 8H9.828a3 3 0 0 1-2.12-.879L6.632 6.048l-.992 5.29A6.5 6.5 0 0 0 5.545 13H7a1 1 0 1 1 0 2h-.492a.998.998 0 0 1 .71 1.696l-.095.086A6.436 6.436 0 0 0 12 19c1.87 0 3.527-.784 4.696-2.02l.18-.2a1 1 0 0 1 .616-1.78H17a1 1 0 1 1 0-2h1.455a6.496 6.496 0 0 0-.096-1.662l-.993-5.29Zm-3.472 9.005a1 1 0 0 1-.447 1.342l-.553.276a2 2 0 0 1-1.788 0l-.553-.276a1 1 0 0 1 .894-1.79l.553.277.553-.276a1 1 0 0 1 1.341.447ZM9.5 10a1.5 1.5 0 1 1 0 3 1.5 1.5 0 0 1 0-3Zm5 0a1.5 1.5 0 1 1 0 3 1.5 1.5 0 0 1 0-3Z"/></g></svg>
